X:1
T:Miles' Lane
T:Miles' Lane
T:Public Domain
Z:Public Domain
%%score ( 1 2 ) ( 3 4 )
L:1/8
M:4/4
K:C
V:1 treble nm="ChrchOrg"
V:2 treble 
V:3 bass nm="ChrchOrg-2"
V:4 bass 
V:1
 [EG]2 | [Ec]2 [Fc]2 [Gc]2 [Gd]2 | [Ge]2 ([Gd] [^Fc]) [Gd]2 G2 | [FA]2 G F [CE]2 [B,D]2 | %4
 C6 [EG]2 | [Ec]2 [Fc]2 [Gc]2 [Gd]2 | [Ge]2 ([Gd] [^Fc]) [Gd]2 G2 | [Gc]4 [Ec]4 | [Ge]4 [ce]4 | %9
 g4 [Bg]4 | [Ge]4 [Af]4 | [Ge]4 d4 | [Ec]6 |] %13
V:2
 x2 | x8 | x6 G2 | x2 C2 x4 | C6 x2 | x8 | x6 G2 | x8 | x8 | (c2 B A) x4 | x8 | x4 (G2 F2) | x6 |] %13
V:3
 [C,C]2 | [C,G,]2 [F,A,]2 [E,G,]2 [G,B,]2 | C2 [B,D] A, [G,B,]2 [E,C]2 | %3
 [F,C]2 [E,G,] [F,A,] G,2 (G, F,) | [C,E,]6 [C,C]2 | [C,G,]2 [F,A,]2 [E,G,]2 [G,B,]2 | %6
 C2 [B,D] A, [G,B,]2 G,2 | [E,C]4 [C,G,]4 | C4 [A,C]4 | (E2 D C) [G,D]4 | C4 [F,C]4 | %11
 [G,C]4 [G,,B,]4 | [C,C]6 |] %13
V:4
 x2 | x8 | C2 x A, x4 | x4 G,2 G,,2 | x8 | x8 | C2 x A, x2 G,2 | x8 | C4 x4 | G,4 x4 | C4 x4 | x8 | %12
 x6 |] %13

